X:21164 
T:POWERS OF PUNCH, The 
B:DMI.0352
Z:Nordberg/Black
R:jig
%Q:1/4=160
M:6/8
L:1/8
K:G
E|DEF GBG|AEF G2E|DGA GBc|dec Bcd|
ege dBd|cBA BGE|DcB AGA|BGG G2:|
%
B|dBd gdB|cAG FGA|dBd gdB|def g2f|
ege dBG|cBA BGE|DcB AGA|BGG G2:|
%
E|DGB cde|dge dBG|ceg dBG|EFG A2d|
gfe afd|ege dBG|EcB AGA|BGG G2:|
%
c|BAG AFD|GDC B,A,G,|G,GF GDB,|A,AA A2a|
bgb afa|gfe dBG|EcB AGA|BGG G2:|

%%%

